X: 1
T: Lamey's
M: 4/4
L: 1/8
R: reel
K: Edor
|:E2 BE GBEc|dDAD FADF|E2 BE GBEc|1dAFA GEED:|2dAFA GEEf||
|:geBA GBEe|fdAG FADf|geBA GBEc|dEcE BEEf|
geBA GBEe|fdAG FADf|gbfg efde|BdAd BEFD||
